packages/icons/src/components/Icon/assets/small-outline/pin.svg

<svg width="16" height="16" viewBox="0 0 16 16" fill="none" xmlns="http://www.w3.org/2000/svg">
<path fill-rule="evenodd" clip-rule="evenodd" d="M8.52632 1.50869C9.20457 0.830437 10.3042 0.830437 10.9825 1.50869L14.4913 5.01751C15.1696 5.69576 15.1696 6.79542 14.4913 7.47368L11.3581 10.6069C11.3092 10.6558 11.2603 10.7583 11.2747 10.9129C11.3995 12.2585 11.0035 13.3912 10.302 14.3543C9.6605 15.235 8.47284 15.1396 7.82456 14.4913L5.89471 12.5615L3.96486 14.4913C3.28661 15.1696 2.18694 15.1696 1.50869 14.4913C0.830437 13.8131 0.830437 12.7134 1.50869 12.0351L3.43854 10.1053L1.50869 8.17544C0.860411 7.52716 0.765043 6.3395 1.64571 5.69799C2.60875 4.99648 3.74152 4.60047 5.08706 4.7253C5.24171 4.73965 5.34417 4.69085 5.39308 4.64193L8.52632 1.50869ZM8.8772 13.4387C8.92856 13.49 8.98984 13.5088 9.03407 13.5078C9.05474 13.5074 9.06798 13.5029 9.07521 13.4992C9.08108 13.4963 9.08892 13.4913 9.09873 13.4778C9.61532 12.7686 9.87957 11.9901 9.7924 11.0505C9.74544 10.5443 9.88506 9.97464 10.3054 9.55428L13.4387 6.42103C13.5356 6.32414 13.5356 6.16704 13.4387 6.07015L9.92985 2.56133C9.83296 2.46444 9.67586 2.46444 9.57897 2.56133L6.44572 5.69458C6.02536 6.11494 5.4557 6.25456 4.94954 6.2076C4.00994 6.12043 3.23139 6.38468 2.52221 6.90127C2.50874 6.91108 2.5037 6.91892 2.50077 6.92479C2.49715 6.93202 2.49261 6.94526 2.49217 6.96593C2.49123 7.01016 2.50998 7.07144 2.56133 7.1228L8.8772 13.4387ZM4.49118 11.1579L2.56133 13.0878C2.46444 13.1847 2.46444 13.3418 2.56133 13.4387C2.65823 13.5356 2.81532 13.5356 2.91222 13.4387L4.84207 11.5088L4.49118 11.1579Z" fill="black"/>
</svg>

<svg xmlns="http://www.w3.org/2000/svg" width="16" height="16" fill="none" viewBox="0 0 16 16">
    <path fill="#000" fill-rule="evenodd" d="M8.526 1.509a1.737 1.737 0 0 1 2.457 0l3.508 3.509a1.737 1.737 0 0 1 0 2.456l-3.133 3.133c-.049.049-.098.151-.083.306.124 1.345-.271 2.478-.973 3.441-.641.881-1.83.786-2.477.137l-1.93-1.93-1.93 1.93a1.737 1.737 0 1 1-2.456-2.456l1.93-1.93-1.93-1.93C.86 7.527.765 6.34 1.646 5.698c.963-.702 2.096-1.098 3.441-.973.155.015.257-.034.306-.083zm.351 11.93c.052.051.113.07.157.069q.03-.002.041-.009a.1.1 0 0 0 .024-.021c.516-.71.78-1.488.693-2.427-.047-.507.093-1.076.513-1.497l3.134-3.133a.25.25 0 0 0 0-.35l-3.51-3.51a.25.25 0 0 0-.35 0L6.446 5.695c-.42.42-.99.56-1.496.513-.94-.088-1.719.177-2.428.693a.1.1 0 0 0-.021.024.1.1 0 0 0-.009.04c0 .045.018.106.07.158zm-4.386-2.281-1.93 1.93a.248.248 0 0 0 .351.35l1.93-1.93z" clip-rule="evenodd"/>
</svg>
